X:1
T:Title
%%score { ( 1 3 ) | ( 2 4 ) }
L:1/8
Q:1/4=100
M:6/8
K:Db
V:1 treble nm="Grand Piano"
V:3 treble 
V:2 bass 
V:4 bass 
V:1
 [FA][GB][FA] [DF][FA][Fd] | [Fd]2 [Ec] [CEG]3 | [Ec][CEG][CEG] [Ec][CEG][CEG] | %3
w: D.~B.~Towner * * * * *|||
 [GB][FA][_F=G] [=FA]3 | [FA][GB][FA] [DF][FA][Fd] | [Fd]2 [Ec] [CEG]3 | %6
w: |||
 [Ec][CEG][CEG] [Ec][CEG][CEG] | [EGA][CGB][Gc] [Fd]3 | e3 A3 | d3 F3 | A3 z3 | A6 | e3 A3 | %13
w: |||||||
 d3 F3 | AFA B2 [Gc] | d-[Ad-][Gd-] [Fd]3 |] %16
w: |||
V:2
 [D,D][D,D][D,D] [D,A,][D,A,][D,A,] | [A,,A,]2 [A,,A,] A,,3 | [A,,A,]A,,A,, [A,,A,]A,,A,, | %3
 [D,D][D,D][D,D] [D,D]3 | [D,D][D,D][D,D] [D,A,][D,A,][D,A,] | [A,,A,]2 [A,,A,] A,,3 | %6
 [A,,A,]A,,G,, [A,,A,]A,,A,, | A,,A,,[A,,A,] [D,A,]3 | [A,CG][A,B,]A, [A,CG]2 [A,C] | %9
 [D,D][D,C][D,B,] [D,A,D]2 [D,A,] | [A,,G,][A,,F,][A,,E,] [A,,A,]2 [C,G,] | %11
 [D,F,D][D,A,][D,D] [D,D]3 | [A,CG][A,B,]A, [A,CG]2 [A,C] | [D,D][D,C][D,B,] [D,A,D]2 [D,A,] | %14
 [F,D][D,D][F,CD] [G,DG]2 [E,A,] | A,F,[D,B,] [D,A,]3 |] %16
V:3
 x6 | x6 | x6 | x6 | x6 | x6 | x6 | x6 | z GG z2 G | FFF z2 D | CCC [CE]2 E | z FF F3 | z GG z2 G | %13
 FFF z2 D | x6 | .F3 z3 |] %16
V:4
 x6 | x6 | x6 | x6 | x6 | x6 | x6 | x6 | x6 | x6 | x6 | x6 | x6 | x6 | x6 | .D,3 z3 |] %16

